!!!COM: Music21
!!!OTL: waltz_Vaarin-Hambo
!!!OMV: waltz_Vaarin-Hambo
**kern
*clefG2
*k[f#]
*G:
*M9/8
=1
[4.dd
8ddL]
8cc
8bJ
=||
4g
[8e
4e]
8e
4f#
8g
=
4d
[8B
4B]
8B
4c
8B
=
4A
[8g
4g]
[8g
8gL]
8a
8gJ
=
4f#
[8d
4d]
[8dd
8ddL]
8cc
8bJ
!!linebreak:original
=
4g
[8e
4e]
8e
4f#
8g
=
4d
[8B
4B]
8B
4c
8d
=
4e
8g
4.f#
4d
8e
=
[4.e
4e]
[8dd
8ddL]
8cc
8bJ
=||
4g
[8e
4e]
8e
4f#
8g
!!linebreak:original
=
4d
[8B
4B]
8B
4c
8B
=
4A
[8g
4g]
[8g
8gL]
8a
8gJ
=
4f#
[8d
4d]
[8dd
8ddL]
8cc
8bJ
=
4g
[8e
4e]
8e
4f#
8g
=
4d
[8B
4B]
8B
4c
8d
!!linebreak:original
=
4e
8g
4.f#
4d
8e
=
[4.e
4e]
8B
4c
8d
=||
[4.e
4e]
8e
4f#
8g
=
[4.d
4d]
8e
4f#
8g
=
[4.c
4c]
8e
4f#
8g
=
[4.B
4B]
8d
4f#
8g
!!linebreak:original
=
[4.a
4a]
8d
4g
8a
=
[4.b
4b]
8g
4a
8b
=
[4.cc
4cc]
8a
4cc
8ee
=
4.dd
[4.dd
8ddL]
8cc
8bJ
=
4g
[8e
4e]
8e
4f#
8g
=
4d
[8B
4B]
8B
4c
8B
!!linebreak:original
=
4A
[8g
4g]
[8g
8gL]
8a
8gJ
=
4f#
[8d
4d]
[8dd
8ddL]
8cc
8bJ
=
4g
[8e
4e]
8e
4f#
8g
=
4d
[8B
4B]
8B
4c
8d
=
4e
8g
4.f#
4d
8e
!!linebreak:original
=
[4.e
4e]
8B
4c
8d
=||
[4.e
4e]
8e
4f#
8g
=
[4.d
4d]
8e
4f#
8g
=
[4.c
4c]
8e
4f#
8g
=
[4.B
4B]
8d
4f#
8g
=
[4.a
4a]
8d
4g
8a
!!linebreak:original
=
[4.b
4b]
8g
4a
8b
=
[4.cc
4cc]
8a
4cc
8ee
=
4.dd
[4.dd
8ddL]
8cc
8bJ
=
4g
[8e
4e]
8e
4f#
8g
=
4d
[8B
4B]
8B
4c
8B
!!linebreak:original
=
4A
[8g
4g]
[8g
8gL]
8a
8gJ
=
4f#
[8d
4d]
[8dd
8ddL]
8cc
8bJ
=
4g
[8e
4e]
8e
4f#
8g
=
4d
[8B
4B]
8B
4c
8d
=
4e
8g
4.f#
4d
8e
=
4.e
2.ryy
=||
*-
